language/src/icons/hicolor/scalable/apps/yast-language.svg

<?xml version="1.0" encoding="UTF-8"?>
<svg version="1.1" viewBox="0 0 128 128" xmlns="http://www.w3.org/2000/svg">
<g transform="matrix(2,0,0,2,-2,32)">
<rect x="7" y="-9" width="34" height="49" ry="2" fill="#c0bfbc"/>
<rect x="7" y="-10" width="34" height="48" ry="2" fill="#f6f5f4"/>
<path d="m15 4h16v4l-6 8 8 4v4l-10-6-6 6h-2v-2l14-16h-8l-2 2-4-2z" fill="#c0bfbc"/>
<path d="m15 6h16v4l-6 8 8 4v4l-10-6-6 6-2-2 14-16h-8l-2 2z" fill="#333"/>
<path d="m27 0v2h-6l-2-2v-2z" fill="#c0bfbc"/>
<path d="m27 2v2h-6l-2-4z" fill="#333"/>
<rect x="25" y="-6" width="34" height="48" ry="2" fill="#1a5fb4"/>
<rect x="25" y="-8" width="34" height="48" ry="2" fill="#3584e4"/>
<path d="m39 4-8 24 5.1016-1 1.8984-5h8l1.8984 5 5.1016 1-8-24zm2 8h2l2 4h-6z" fill="#1a5fb4"/>
<path d="m39 6-8 22h6l2-6h6l2 6h6l-8-22zm2 6h2l2 6h-6z" fill="#fff"/>
</g>
</svg>

<?xml version="1.0" encoding="UTF-8" standalone="no"?>
<svg
   xmlns:dc="http://purl.org/dc/elements/1.1/"
   xmlns:cc="http://creativecommons.org/ns#"
   xmlns:rdf="http://www.w3.org/1999/02/22-rdf-syntax-ns#"
   xmlns:svg="http://www.w3.org/2000/svg"
   xmlns="http://www.w3.org/2000/svg"
   height="128"
   width="128"
   id="svg26"
   viewBox="0 0 128 128"
   version="1.1">
  <defs
     id="defs30" />
  <metadata
     id="metadata2">
    <rdf:RDF>
      <cc:Work
         rdf:about="">
        <dc:format>image/svg+xml</dc:format>
        <dc:type
           rdf:resource="http://purl.org/dc/dcmitype/StillImage" />
        <dc:creator>
          <cc:Agent>
            <dc:title>Jakub Steiner</dc:title>
          </cc:Agent>
        </dc:creator>
        <dc:source>http://jimmac.musichall.cz</dc:source>
        <cc:license
           rdf:resource="http://creativecommons.org/licenses/by-sa/2.0/" />
        <dc:title></dc:title>
        <dc:subject>
          <rdf:Bag>
            <rdf:li>apparmor</rdf:li>
            <rdf:li>novell</rdf:li>
          </rdf:Bag>
        </dc:subject>
      </cc:Work>
      <cc:License
         rdf:about="http://creativecommons.org/licenses/by-sa/2.0/">
        <cc:permits
           rdf:resource="http://web.resource.org/cc/Reproduction" />
        <cc:permits
           rdf:resource="http://web.resource.org/cc/Distribution" />
        <cc:requires
           rdf:resource="http://web.resource.org/cc/Notice" />
        <cc:requires
           rdf:resource="http://web.resource.org/cc/Attribution" />
        <cc:permits
           rdf:resource="http://web.resource.org/cc/DerivativeWorks" />
        <cc:requires
           rdf:resource="http://web.resource.org/cc/ShareAlike" />
      </cc:License>
    </rdf:RDF>
  </metadata>
  <g
     id="g24"
     transform="matrix(2,0,0,2,-2,32)">
    <rect
       style="fill:#c0bfbc"
       id="rect4"
       ry="2"
       height="49"
       width="34"
       y="-9"
       x="7" />
    <rect
       style="fill:#f6f5f4"
       id="rect6"
       ry="2"
       height="48"
       width="34"
       y="-10"
       x="7" />
    <path
       style="fill:#c0bfbc"
       id="path8"
       d="m 15,4 h 16 v 4 l -6,8 8,4 v 4 L 23,18 17,24 H 15 V 22 L 29,6 H 21 L 19,8 15,6 Z" />
    <path
       style="fill:#333333"
       id="path10"
       d="m 15,6 h 16 v 4 l -6,8 8,4 v 4 L 23,20 17,26 15,24 29,8 h -8 l -2,2 z" />
    <path
       style="fill:#c0bfbc"
       id="path12"
       d="M 27,0 V 2 H 21 L 19,0 v -2 z" />
    <path
       style="fill:#333333"
       id="path14"
       d="M 27,2 V 4 H 21 L 19,0 Z" />
    <rect
       style="fill:#1a5fb4"
       id="rect16"
       ry="2"
       height="48"
       width="34"
       y="-6"
       x="25" />
    <rect
       style="fill:#3584e4"
       id="rect18"
       ry="2"
       height="48"
       width="34"
       y="-8"
       x="25" />
    <path
       style="fill:#1a5fb4"
       id="path20"
       d="M 39,4 31,28 36.1016,27 38,22 h 8 L 47.8984,27 53,28 45,4 Z m 2,8 h 2 l 2,4 h -6 z" />
    <path
       style="fill:#ffffff"
       id="path22"
       d="m 39,6 -8,22 h 6 l 2,-6 h 6 l 2,6 h 6 L 45,6 Z m 2,6 h 2 l 2,6 h -6 z" />
  </g>
</svg>
